src/assets/icons/files/folder-sync.svg

<svg xmlns="http://www.w3.org/2000/svg" width="24" height="24" fill="currentColor" viewBox="0 0 512 512"><path fill-rule="evenodd" d="M64 480h384c35.3 0 64-28.7 64-64V160c0-35.3-28.7-64-64-64H288c-10.1 0-19.6-4.7-25.6-12.8l-19.2-25.6C231.1 41.5 212.1 32 192 32H64C28.7 32 0 60.7 0 96v320c0 35.3 28.7 64 64 64m72-164c0-6.65 5.35-12 12-12h64c4.85 0 9.25 2.9 11.1 7.4s.85 9.65-2.6 13.1l-20.55 20.55c31.3 30.75 81.55 30.6 112.65-.5 8.75-8.75 15.05-19 18.9-29.9 2.95-8.35 12.1-12.7 20.4-9.75s12.7 12.1 9.75 20.4c-5.4 15.3-14.2 29.65-26.45 41.9-43.6 43.6-114.15 43.75-157.9.5l-20.8 20.8c-3.45 3.45-8.6 4.45-13.1 2.6s-7.4-6.25-7.4-11.1zm44.55-54.65c3.85-10.9 10.15-21.15 18.9-29.9h-.05c31.1-31.1 81.35-31.25 112.65-.5L291.5 251.5c-3.45 3.45-4.45 8.6-2.6 13.1s6.25 7.4 11.1 7.4h64c6.65 0 12-5.35 12-12v-64c0-4.85-2.9-9.25-7.4-11.1s-9.65-.85-13.1 2.6l-20.8 20.8c-43.75-43.25-114.3-43.1-157.9.5-12.2 12.2-21 26.55-26.4 41.9-2.95 8.3 1.45 17.45 9.75 20.4s17.45-1.4 20.4-9.75" clip-rule="evenodd"/></svg>

<svg xmlns="http://www.w3.org/2000/svg" height="24px" viewBox="0 0 512 512" width="24px" fill="currentColor">

    <path fill-rule="evenodd" clip-rule="evenodd"
        d="M64 480H448C483.3 480 512 451.3 512 416V160C512 124.7 483.3 96 448 96H288C277.9 96 268.4 91.3 262.4 83.2L243.2 57.6C231.1 41.5 212.1 32 192 32H64C28.7 32 0 60.7 0 96V416C0 451.3 28.7 480 64 480ZM136 316C136 309.35 141.35 304 148 304H151.8H152.15H212C216.85 304 221.25 306.9 223.1 311.4C224.95 315.9 223.95 321.05 220.5 324.5L199.95 345.05C231.25 375.8 281.5 375.65 312.6 344.55C321.35 335.8 327.65 325.55 331.5 314.65C334.45 306.3 343.6 301.95 351.9 304.9C360.2 307.85 364.6 317 361.65 325.3C356.25 340.6 347.45 354.95 335.2 367.2C291.6 410.8 221.05 410.95 177.3 367.7L156.5 388.5C153.05 391.95 147.9 392.95 143.4 391.1C138.9 389.25 136 384.85 136 380V320.2V319.85V316.05V316ZM180.55 261.35C184.4 250.45 190.7 240.2 199.45 231.45H199.4C230.5 200.35 280.75 200.2 312.05 230.95L291.5 251.5C288.05 254.95 287.05 260.1 288.9 264.6C290.75 269.1 295.15 272 300 272H359.8H364C370.65 272 376 266.65 376 260V196C376 191.15 373.1 186.75 368.6 184.9C364.1 183.05 358.95 184.05 355.5 187.5L334.7 208.3C290.95 165.05 220.4 165.2 176.8 208.8C164.6 221 155.8 235.35 150.4 250.7C147.45 259 151.85 268.15 160.15 271.1C168.45 274.05 177.6 269.7 180.55 261.35Z" />

</svg>
